assets/efishery/box-container.svg

<svg width="24" height="25" viewBox="0 0 24 25" fill="none" xmlns="http://www.w3.org/2000/svg">
<path fill-rule="evenodd" clip-rule="evenodd" d="M2 8.02344C2 7.05694 2.7835 6.27344 3.75 6.27344H19.75C20.7165 6.27344 21.5 7.05694 21.5 8.02344V8.47798C21.5 9.44115 20.7219 10.2226 19.76 10.228L19.7022 10.6133H19.9315C20.6595 10.6133 21.2496 11.2035 21.2496 11.9315C21.2496 12.6595 20.6595 13.2496 19.9315 13.2496H19.3067L18.6284 17.7716C18.5734 18.1387 18.258 18.4103 17.8867 18.4103H5.614C5.24275 18.4103 4.92737 18.1387 4.87229 17.7716L4.194 13.2496H3.56854C2.84053 13.2496 2.25036 12.6595 2.25036 11.9315C2.25036 11.2035 2.84053 10.6133 3.56854 10.6133H3.79855L3.74075 10.228C2.77851 10.223 2 9.4414 2 8.47798V8.02344ZM3.94855 11.6133H3.56854C3.39281 11.6133 3.25036 11.7557 3.25036 11.9315C3.25036 12.1072 3.39281 12.2496 3.56854 12.2496H4.044L3.94855 11.6133ZM19.9315 12.2496H19.4567L19.5522 11.6133H19.9315C20.1072 11.6133 20.2496 11.7557 20.2496 11.9315C20.2496 12.1072 20.1072 12.2496 19.9315 12.2496ZM3.75 7.77344C3.61193 7.77344 3.5 7.88537 3.5 8.02344V8.47798C3.5 8.61605 3.61193 8.72798 3.75 8.72798H19.75C19.8881 8.72798 20 8.61605 20 8.47798V8.02344C20 7.88537 19.8881 7.77344 19.75 7.77344H3.75ZM5.25761 10.2285L6.25989 16.9103H17.2408L18.2431 10.2285H14.546V11.524C14.546 13.0679 13.2944 14.3194 11.7505 14.3194C10.2066 14.3194 8.95508 13.0679 8.95508 11.524V10.2285H5.25761ZM10.4551 10.2285V11.524C10.4551 12.2394 11.0351 12.8194 11.7505 12.8194C12.466 12.8194 13.046 12.2394 13.046 11.524V10.2285H10.4551Z" fill="#1D1D1D"/>
</svg>

<svg viewBox="0 0 24 25" xmlns="http://www.w3.org/2000/svg">
  <path fill-rule="evenodd" clip-rule="evenodd" d="M2 8.023c0-.966.784-1.75 1.75-1.75h16c.966 0 1.75.784 1.75 1.75v.455a1.75 1.75 0 0 1-1.74 1.75l-.058.385h.23a1.318 1.318 0 0 1 0 2.637h-.625l-.679 4.522a.75.75 0 0 1-.741.638H5.614a.75.75 0 0 1-.742-.638l-.678-4.522h-.625a1.318 1.318 0 1 1 0-2.637h.23l-.058-.385A1.75 1.75 0 0 1 2 8.478v-.455zm1.949 3.59h-.38a.318.318 0 1 0 0 .637h.475l-.095-.637zm15.982.637h-.474l.095-.637h.38a.318.318 0 1 1 0 .637zM3.75 7.773a.25.25 0 0 0-.25.25v.455c0 .138.112.25.25.25h16a.25.25 0 0 0 .25-.25v-.455a.25.25 0 0 0-.25-.25h-16zm1.508 2.456L6.26 16.91h10.98l1.003-6.681h-3.697v1.295a2.795 2.795 0 0 1-5.59 0v-1.295H5.257zm5.197 0v1.295a1.295 1.295 0 0 0 2.591 0v-1.295h-2.59z"/>
</svg>
